X: 52
M: C
L: 1/8
K: G
fefg afd2 | (uga)gf e2dc | BGBd cAFA | G2GG- G2g2 |
fefg afd2 | (ufa)gf e2dc | BGBd cABG | ABAG E2D2 |
an Nor Yell it wis caaed "Da Doonfaa' o' Paris".  Da Peerie
hoos wis what some auld folk caaed an ootside water closet.  Da
t\"un is really a variant o' an English t\"un caaed "Fay's Hornpipe"
bit he's been played aa ower Shetland fir mony a year.


